modules/ext.wikisource.OCR/OnboardingPopup.svg

<svg width="296" height="148" viewBox="0 0 296 148" fill="none" xmlns="http://www.w3.org/2000/svg">
<rect width="296" height="148" fill="white"/>
<g filter="url(#filter0_d)">
<path d="M10.386 73.4816L10.5526 29.5628C10.5532 29.2967 10.6595 29.0418 10.848 28.854C11.0365 28.6663 11.2919 28.561 11.558 28.5614H66.9045V36.8173C66.9045 37.3691 67.3522 37.8162 67.9014 37.8162H76.0568V117.588C76.0568 118.141 75.7857 118.235 75.421 117.823C75.421 117.823 74.6592 116.563 73.1871 116.563C71.715 116.563 71.849 117.722 70.5485 118.084C69.248 118.446 69.2455 116.563 67.8519 116.563C66.4583 116.563 66.3828 118.084 65.0567 118.084C63.7302 118.084 63.8172 116.563 62.3671 116.563C60.917 116.563 60.7769 118.084 59.5039 118.084C58.2309 118.084 58.2694 116.563 56.7793 116.563C55.2887 116.563 55.2952 118.084 53.9766 118.084C52.6586 118.084 52.7511 116.563 51.357 116.563C49.9634 116.563 50.0165 117.723 48.6694 118.084C47.3228 118.445 47.0827 116.563 45.7362 116.563C44.3901 116.563 44.2896 118.084 42.992 118.084C41.6945 118.084 41.9031 116.563 40.4635 116.563C39.0239 116.563 38.8633 118.084 37.5178 118.084C36.1722 118.084 36.0562 116.563 34.6556 116.563C33.2545 116.563 33.4066 118.084 32.025 118.084C30.6439 118.084 30.5934 116.563 29.2188 116.563C27.8447 116.563 27.8663 118.084 26.5142 118.084C25.1616 118.084 25.2237 116.563 23.7731 116.563C22.3224 116.563 22.2679 118.084 20.9084 118.084C19.5493 118.084 19.6688 116.563 18.4804 116.563C17.2919 116.563 16.7957 118.49 15.4991 118.084C14.2021 117.678 14.3516 116.563 12.903 116.563C11.4549 116.563 10.9422 117.764 10.9422 117.764C10.6351 118.219 10.386 118.138 10.386 117.59V73.4816H10.386Z" fill="black"/>
</g>
<path d="M10.386 73.4816L10.5526 29.5628C10.5532 29.2967 10.6595 29.0418 10.848 28.854C11.0365 28.6663 11.2919 28.561 11.558 28.5614H66.9045V36.8173C66.9045 37.3691 67.3522 37.8162 67.9014 37.8162H76.0568V117.588C76.0568 118.141 75.7857 118.235 75.421 117.822C75.421 117.822 74.6592 116.563 73.1871 116.563C71.715 116.563 71.849 117.722 70.5485 118.084C69.248 118.446 69.2455 116.563 67.8519 116.563C66.4583 116.563 66.3828 118.084 65.0567 118.084C63.7302 118.084 63.8172 116.563 62.3671 116.563C60.917 116.563 60.7769 118.084 59.5039 118.084C58.2309 118.084 58.2694 116.563 56.7793 116.563C55.2887 116.563 55.2952 118.084 53.9766 118.084C52.6586 118.084 52.7511 116.563 51.357 116.563C49.9634 116.563 50.0165 117.723 48.6694 118.084C47.3228 118.445 47.0827 116.563 45.7362 116.563C44.3901 116.563 44.2896 118.084 42.992 118.084C41.6945 118.084 41.9031 116.563 40.4635 116.563C39.0239 116.563 38.8633 118.084 37.5178 118.084C36.1722 118.084 36.0562 116.563 34.6556 116.563C33.2545 116.563 33.4066 118.084 32.025 118.084C30.6439 118.084 30.5934 116.563 29.2188 116.563C27.8447 116.563 27.8663 118.084 26.5142 118.084C25.1616 118.084 25.2237 116.563 23.7731 116.563C22.3224 116.563 22.2679 118.084 20.9084 118.084C19.5493 118.084 19.6688 116.563 18.4804 116.563C17.2919 116.563 16.7957 118.49 15.4991 118.084C14.2021 117.678 14.3516 116.563 12.903 116.563C11.4549 116.563 10.9422 117.764 10.9422 117.764C10.6351 118.219 10.386 118.138 10.386 117.59V73.4816H10.386Z" fill="white" stroke="#A2A9B1" stroke-linecap="round"/>
<path fill-rule="evenodd" clip-rule="evenodd" d="M67.4101 38.0654H71.4863C72.8144 38.0652 74.1424 38.0652 75.4705 38.0654C75.5085 38.0644 75.5225 38.0639 75.5625 38.0669V38.0654C75.8356 38.0654 76.0632 37.8293 76.0632 37.5281C76.0632 37.3461 75.9807 37.183 75.8462 37.085L75.7821 37.0289L67.7578 28.7125C67.6911 28.6411 67.604 28.592 67.5084 28.5718C67.4128 28.5517 67.3134 28.5615 67.2235 28.5999C67.0365 28.68 66.9094 28.8775 66.9094 29.0986V37.5281C66.9094 37.8293 67.137 38.0654 67.4101 38.0654Z" fill="#C8CCD1" stroke="#A2A9B1"/>
<g opacity="0.35">
<path d="M20.0104 44.5681C22.52 44.5681 24.5543 42.5525 24.5543 40.0662C24.5543 37.5799 22.52 35.5643 20.0104 35.5643C17.5009 35.5643 15.4666 37.5799 15.4666 40.0662C15.4666 42.5525 17.5009 44.5681 20.0104 44.5681Z" fill="#A2A9B1"/>
<path fill-rule="evenodd" clip-rule="evenodd" d="M54.0168 46.0687C54.0168 46.0687 64.9693 53.4462 67.4338 50.7321C69.8979 48.0175 67.4338 54.6722 67.4338 54.6722H45.8083" fill="#A2A9B1"/>
<path fill-rule="evenodd" clip-rule="evenodd" d="M10.9221 50.0703C10.9221 50.0703 19.6507 56.1669 31.8148 56.1669C43.9789 56.1669 34.791 60.0745 34.791 60.0745H10.9481" fill="#A2A9B1"/>
<path fill-rule="evenodd" clip-rule="evenodd" d="M12.3088 60.1335C12.3088 60.1335 60.1187 37.3401 54.1277 48.8118C48.1372 60.2836 75.5851 46.1177 75.5851 46.1177V60.1335" fill="#C8CCD1"/>
</g>
<path fill-rule="evenodd" clip-rule="evenodd" d="M10.9224 59.5743H75.4992V60.5747H10.9224V59.5743Z" fill="#F5F5F5"/>
<path d="M52.4395 69.0782H16.9248C16.6485 69.0782 16.4246 69.3022 16.4246 69.5785C16.4246 69.8547 16.6485 70.0787 16.9248 70.0787H52.4395C52.7158 70.0787 52.9397 69.8547 52.9397 69.5785C52.9397 69.3022 52.7158 69.0782 52.4395 69.0782Z" fill="#3366CC"/>
<path d="M56.4412 81.0832H16.9248C16.6485 81.0832 16.4246 81.3072 16.4246 81.5834C16.4246 81.8597 16.6485 82.0836 16.9248 82.0836H56.4412C56.7174 82.0836 56.9414 81.8597 56.9414 81.5834C56.9414 81.3072 56.7174 81.0832 56.4412 81.0832Z" fill="#3366CC"/>
<path d="M31.931 108.094H16.9248C16.6485 108.094 16.4246 108.318 16.4246 108.595C16.4246 108.871 16.6485 109.095 16.9248 109.095H31.931C32.2073 109.095 32.4312 108.871 32.4312 108.595C32.4312 108.318 32.2073 108.094 31.931 108.094Z" fill="#3366CC"/>
<path d="M69.9466 108.094H34.4318C34.1556 108.094 33.9316 108.318 33.9316 108.595C33.9316 108.871 34.1556 109.095 34.4318 109.095H69.9466C70.2229 109.095 70.4468 108.871 70.4468 108.595C70.4468 108.318 70.2229 108.094 69.9466 108.094Z" fill="#3366CC"/>
<path d="M24.4279 88.0861H16.9248C16.6485 88.0861 16.4246 88.3101 16.4246 88.5863C16.4246 88.8626 16.6485 89.0866 16.9248 89.0866H24.4279C24.7041 89.0866 24.9281 88.8626 24.9281 88.5863C24.9281 88.3101 24.7041 88.0861 24.4279 88.0861Z" fill="#3366CC"/>
<path d="M69.9467 88.0861H62.4436C62.1673 88.0861 61.9434 88.3101 61.9434 88.5863C61.9434 88.8626 62.1673 89.0866 62.4436 89.0866H69.9467C70.2229 89.0866 70.4469 88.8626 70.4469 88.5863C70.4469 88.3101 70.2229 88.0861 69.9467 88.0861Z" fill="#3366CC"/>
<path d="M59.9429 88.0861H26.9292C26.6529 88.0861 26.429 88.3101 26.429 88.5863C26.429 88.8626 26.6529 89.0866 26.9292 89.0866H59.9429C60.2191 89.0866 60.4431 88.8626 60.4431 88.5863C60.4431 88.3101 60.2191 88.0861 59.9429 88.0861Z" fill="#3366CC"/>
<path d="M24.4279 104.593H16.9248C16.6485 104.593 16.4246 104.817 16.4246 105.093C16.4246 105.369 16.6485 105.593 16.9248 105.593H24.4279C24.7041 105.593 24.9281 105.369 24.9281 105.093C24.9281 104.817 24.7041 104.593 24.4279 104.593Z" fill="#3366CC"/>
<path d="M70.4472 104.593H52.9399C52.6636 104.593 52.4397 104.817 52.4397 105.093C52.4397 105.369 52.6636 105.593 52.9399 105.593H70.4472C70.7234 105.593 70.9474 105.369 70.9474 105.093C70.9474 104.817 70.7234 104.593 70.4472 104.593Z" fill="#3366CC"/>
<path d="M50.4389 104.593H26.9292C26.6529 104.593 26.429 104.817 26.429 105.093C26.429 105.369 26.6529 105.593 26.9292 105.593H50.4389C50.7152 105.593 50.9391 105.369 50.9391 105.093C50.9391 104.817 50.7152 104.593 50.4389 104.593Z" fill="#3366CC"/>
<path d="M58.9422 81.0832H69.9468C70.2231 81.0832 70.447 81.3072 70.447 81.5834C70.447 81.8597 70.2231 82.0836 69.9468 82.0836H58.9422C58.666 82.0836 58.442 81.8597 58.442 81.5834C58.442 81.3072 58.666 81.0832 58.9422 81.0832Z" fill="#3366CC"/>
<path d="M56.4412 98.5905H16.9248C16.6485 98.5905 16.4246 98.8145 16.4246 99.0907C16.4246 99.367 16.6485 99.5909 16.9248 99.5909H56.4412C56.7174 99.5909 56.9414 99.367 56.9414 99.0907C56.9414 98.8145 56.7174 98.5905 56.4412 98.5905Z" fill="#3366CC"/>
<path d="M49.9385 77.5818H43.936C43.6597 77.5818 43.4358 77.8057 43.4358 78.082C43.4358 78.3583 43.6597 78.5822 43.936 78.5822H49.9385C50.2148 78.5822 50.4387 78.3583 50.4387 78.082C50.4387 77.8057 50.2148 77.5818 49.9385 77.5818Z" fill="#3366CC"/>
<path d="M69.9469 77.5818H52.4397C52.1634 77.5818 51.9395 77.8057 51.9395 78.082C51.9395 78.3583 52.1634 78.5822 52.4397 78.5822H69.9469C70.2232 78.5822 70.4471 78.3583 70.4471 78.082C70.4471 77.8057 70.2232 77.5818 69.9469 77.5818Z" fill="#3366CC"/>
<path d="M41.435 77.5818H16.9248C16.6485 77.5818 16.4246 77.8057 16.4246 78.082C16.4246 78.3583 16.6485 78.5822 16.9248 78.5822H41.435C41.7112 78.5822 41.9352 78.3583 41.9352 78.082C41.9352 77.8057 41.7112 77.5818 41.435 77.5818Z" fill="#3366CC"/>
<path d="M69.9468 95.0891H16.9248C16.6485 95.0891 16.4246 95.313 16.4246 95.5893C16.4246 95.8655 16.6485 96.0895 16.9248 96.0895H69.9468C70.2231 96.0895 70.447 95.8655 70.447 95.5893C70.447 95.313 70.2231 95.0891 69.9468 95.0891Z" fill="#3366CC"/>
<path d="M69.9468 91.5876H16.9248C16.6485 91.5876 16.4246 91.8115 16.4246 92.0878C16.4246 92.364 16.6485 92.588 16.9248 92.588H69.9468C70.2231 92.588 70.447 92.364 70.447 92.0878C70.447 91.8115 70.2231 91.5876 69.9468 91.5876Z" fill="#3366CC"/>
<path d="M69.9468 111.596H16.9248C16.6485 111.596 16.4246 111.82 16.4246 112.096C16.4246 112.372 16.6485 112.596 16.9248 112.596H69.9468C70.2231 112.596 70.447 112.372 70.447 112.096C70.447 111.82 70.2231 111.596 69.9468 111.596Z" fill="#3366CC"/>
<path d="M69.9468 84.5847H16.9248C16.6485 84.5847 16.4246 84.8086 16.4246 85.0849C16.4246 85.3612 16.6485 85.5851 16.9248 85.5851H69.9468C70.2231 85.5851 70.447 85.3612 70.447 85.0849C70.447 84.8086 70.2231 84.5847 69.9468 84.5847Z" fill="#3366CC"/>
<path d="M41.4352 65.5768H16.925C16.6488 65.5768 16.4248 65.8007 16.4248 66.077C16.4248 66.3532 16.6488 66.5772 16.925 66.5772H41.4352C41.7115 66.5772 41.9354 66.3532 41.9354 66.077C41.9354 65.8007 41.7115 65.5768 41.4352 65.5768Z" fill="#3366CC"/>
<path d="M221.33 59.0469H175.478C175.121 59.0469 174.832 59.336 174.832 59.6927C174.832 60.0494 175.121 60.3385 175.478 60.3385H221.33C221.687 60.3385 221.976 60.0494 221.976 59.6927C221.976 59.336 221.687 59.0469 221.33 59.0469Z" fill="#3366CC"/>
<path d="M226.496 74.5461H175.478C175.121 74.5461 174.832 74.8352 174.832 75.1919C174.832 75.5486 175.121 75.8377 175.478 75.8377H226.496C226.853 75.8377 227.142 75.5486 227.142 75.1919C227.142 74.8352 226.853 74.5461 226.496 74.5461Z" fill="#3366CC"/>
<path d="M185.165 83.5873H175.478C175.121 83.5873 174.832 83.8764 174.832 84.2331C174.832 84.5898 175.121 84.8789 175.478 84.8789H185.165C185.522 84.8789 185.811 84.5898 185.811 84.2331C185.811 83.8764 185.522 83.5873 185.165 83.5873Z" fill="#3366CC"/>
<path d="M243.933 83.5873H234.246C233.889 83.5873 233.6 83.8764 233.6 84.2331C233.6 84.5898 233.889 84.8789 234.246 84.8789H243.933C244.29 84.8789 244.579 84.5898 244.579 84.2331C244.579 83.8764 244.29 83.5873 243.933 83.5873Z" fill="#3366CC"/>
<path d="M231.017 83.5873H188.394C188.037 83.5873 187.748 83.8764 187.748 84.2331C187.748 84.5898 188.037 84.8789 188.394 84.8789H231.017C231.374 84.8789 231.663 84.5898 231.663 84.2331C231.663 83.8764 231.374 83.5873 231.017 83.5873Z" fill="#3366CC"/>
<path d="M185.165 104.899H175.478C175.121 104.899 174.832 105.188 174.832 105.545C174.832 105.901 175.121 106.19 175.478 106.19H185.165C185.522 106.19 185.811 105.901 185.811 105.545C185.811 105.188 185.522 104.899 185.165 104.899Z" fill="#3366CC"/>
<path d="M244.579 104.899H221.976C221.619 104.899 221.33 105.188 221.33 105.545C221.33 105.901 221.619 106.19 221.976 106.19H244.579C244.935 106.19 245.224 105.901 245.224 105.545C245.224 105.188 244.935 104.899 244.579 104.899Z" fill="#3366CC"/>
<path d="M218.747 104.899H188.394C188.037 104.899 187.748 105.188 187.748 105.545C187.748 105.901 188.037 106.19 188.394 106.19H218.747C219.103 106.19 219.393 105.901 219.393 105.545C219.393 105.188 219.103 104.899 218.747 104.899Z" fill="#3366CC"/>
<path d="M229.725 74.5461H243.933C244.289 74.5461 244.579 74.8352 244.579 75.1919C244.579 75.5486 244.289 75.8377 243.933 75.8377H229.725C229.369 75.8377 229.079 75.5486 229.079 75.1919C229.079 74.8352 229.369 74.5461 229.725 74.5461Z" fill="#3366CC"/>
<path d="M226.496 97.1492H175.478C175.121 97.1492 174.832 97.4383 174.832 97.795C174.832 98.1516 175.121 98.4408 175.478 98.4408H226.496C226.853 98.4408 227.142 98.1516 227.142 97.795C227.142 97.4383 226.853 97.1492 226.496 97.1492Z" fill="#3366CC"/>
<path d="M218.101 70.0255H210.351C209.995 70.0255 209.706 70.3147 209.706 70.6713C209.706 71.028 209.995 71.3171 210.351 71.3171H218.101C218.458 71.3171 218.747 71.028 218.747 70.6713C218.747 70.3147 218.458 70.0255 218.101 70.0255Z" fill="#3366CC"/>
<path d="M243.933 70.0255H221.33C220.973 70.0255 220.684 70.3147 220.684 70.6713C220.684 71.028 220.973 71.3171 221.33 71.3171H243.933C244.29 71.3171 244.579 71.028 244.579 70.6713C244.579 70.3147 244.29 70.0255 243.933 70.0255Z" fill="#3366CC"/>
<path d="M207.122 70.0255H175.478C175.121 70.0255 174.832 70.3147 174.832 70.6713C174.832 71.028 175.121 71.3171 175.478 71.3171H207.122C207.479 71.3171 207.768 71.028 207.768 70.6713C207.768 70.3147 207.479 70.0255 207.122 70.0255Z" fill="#3366CC"/>
<path d="M243.933 92.6285H175.478C175.121 92.6285 174.832 92.9177 174.832 93.2743C174.832 93.631 175.121 93.9201 175.478 93.9201H243.933C244.29 93.9201 244.579 93.631 244.579 93.2743C244.579 92.9177 244.29 92.6285 243.933 92.6285Z" fill="#3366CC"/>
<path d="M243.933 88.108H175.478C175.121 88.108 174.832 88.3971 174.832 88.7538C174.832 89.1104 175.121 89.3996 175.478 89.3996H243.933C244.29 89.3996 244.579 89.1104 244.579 88.7538C244.579 88.3971 244.29 88.108 243.933 88.108Z" fill="#3366CC"/>
<path d="M243.933 79.0667H175.478C175.121 79.0667 174.832 79.3559 174.832 79.7125C174.832 80.0692 175.121 80.3583 175.478 80.3583H243.933C244.29 80.3583 244.579 80.0692 244.579 79.7125C244.579 79.3559 244.29 79.0667 243.933 79.0667Z" fill="#3366CC"/>
<path d="M207.123 54.5263H175.478C175.122 54.5263 174.833 54.8154 174.833 55.1721C174.833 55.5288 175.122 55.8179 175.478 55.8179H207.123C207.479 55.8179 207.768 55.5288 207.768 55.1721C207.768 54.8154 207.479 54.5263 207.123 54.5263Z" fill="#3366CC"/>
<path d="M128.803 78.6019C129.193 78.2113 129.193 77.5782 128.803 77.1876L122.439 70.8237C122.048 70.4332 121.415 70.4332 121.025 70.8237C120.634 71.2142 120.634 71.8474 121.025 72.2379L126.681 77.8947L121.025 83.5516C120.634 83.9421 120.634 84.5753 121.025 84.9658C121.415 85.3563 122.048 85.3563 122.439 84.9658L128.803 78.6019ZM96.9377 78.8947H128.096V76.8947H96.9377V78.8947Z" fill="#3366CC"/>
<rect x="149.367" y="32.9561" width="121.035" height="79.4912" rx="3.5" stroke="#A2A9B1"/>
<rect x="153.262" y="36.8509" width="113.246" height="71.7018" rx="3.5" stroke="#A2A9B1"/>
<path d="M133.289 115.544C133.852 116.409 135.992 118.14 140.047 118.14C144.102 118.14 189.61 118.14 211.856 118.14H281.131C282.257 118.14 284.905 117.621 286.482 115.544" stroke="#A2A9B1"/>
<rect x="132.49" y="112.149" width="153.491" height="2.89474" rx="0.5" stroke="#A2A9B1"/>
<defs>
<filter id="filter0_d" x="8.39622" y="26.5716" width="69.6503" height="93.5585" filterUnits="userSpaceOnUse" color-interpolation-filters="sRGB">
<feFlood flood-opacity="0" result="BackgroundImageFix"/>
<feColorMatrix in="SourceAlpha" type="matrix" values="0 0 0 0 0 0 0 0 0 0 0 0 0 0 0 0 0 0 127 0"/>
<feOffset/>
<feGaussianBlur stdDeviation="0.994882"/>
<feColorMatrix type="matrix" values="0 0 0 0 0.961 0 0 0 0 0.961 0 0 0 0 0.961 0 0 0 1 0"/>
<feBlend mode="normal" in2="BackgroundImageFix" result="effect1_dropShadow"/>
<feBlend mode="normal" in="SourceGraphic" in2="effect1_dropShadow" result="shape"/>
</filter>
</defs>
</svg>

<?xml version="1.0" encoding="UTF-8"?>
<svg xmlns="http://www.w3.org/2000/svg" width="296" height="148" fill="none" viewBox="0 0 296 148">
	<path fill="#fff" d="M0 0h296v148H0z"/>
	<g filter="url(#filter0_d)">
		<path fill="#000" d="m10.386 73.482.167-43.92a1.004 1.004 0 0 1 1.005-1h55.346v8.255a1 1 0 0 0 .997 1h8.156v79.771c0 .553-.271.647-.636.235 0 0-.762-1.26-2.234-1.26s-1.338 1.159-2.638 1.521c-1.301.362-1.303-1.521-2.697-1.521-1.394 0-1.47 1.521-2.795 1.521-1.327 0-1.24-1.521-2.69-1.521s-1.59 1.521-2.863 1.521-1.235-1.521-2.725-1.521-1.484 1.521-2.802 1.521-1.226-1.521-2.62-1.521c-1.394 0-1.34 1.16-2.688 1.521-1.346.361-1.586-1.521-2.933-1.521-1.346 0-1.446 1.521-2.744 1.521-1.297 0-1.089-1.521-2.528-1.521-1.44 0-1.6 1.521-2.946 1.521s-1.462-1.521-2.862-1.521c-1.401 0-1.25 1.521-2.631 1.521-1.381 0-1.432-1.521-2.806-1.521s-1.353 1.521-2.705 1.521-1.29-1.521-2.74-1.521c-1.452 0-1.506 1.521-2.866 1.521-1.359 0-1.24-1.521-2.428-1.521s-1.684 1.927-2.98 1.521c-1.298-.406-1.148-1.521-2.597-1.521a2.143 2.143 0 0 0-1.96 1.201c-.308.455-.557.374-.557-.174V73.482Z"/>
	</g>
	<path fill="#fff" stroke="#A2A9B1" stroke-linecap="round" d="m10.386 73.482.167-43.92a1.004 1.004 0 0 1 1.005-1h55.346v8.255a1 1 0 0 0 .997 1h8.156v79.771c0 .553-.271.647-.636.234 0 0-.762-1.259-2.234-1.259s-1.338 1.159-2.638 1.521c-1.301.362-1.303-1.521-2.697-1.521-1.394 0-1.47 1.521-2.795 1.521-1.327 0-1.24-1.521-2.69-1.521s-1.59 1.521-2.863 1.521-1.235-1.521-2.725-1.521-1.484 1.521-2.802 1.521-1.226-1.521-2.62-1.521c-1.394 0-1.34 1.16-2.688 1.521-1.346.361-1.586-1.521-2.933-1.521-1.346 0-1.446 1.521-2.744 1.521-1.297 0-1.089-1.521-2.528-1.521-1.44 0-1.6 1.521-2.946 1.521s-1.462-1.521-2.862-1.521c-1.401 0-1.25 1.521-2.631 1.521-1.381 0-1.432-1.521-2.806-1.521s-1.353 1.521-2.705 1.521-1.29-1.521-2.74-1.521c-1.452 0-1.506 1.521-2.866 1.521-1.359 0-1.24-1.521-2.428-1.521s-1.684 1.927-2.98 1.521c-1.298-.406-1.148-1.521-2.597-1.521a2.143 2.143 0 0 0-1.96 1.201c-.308.455-.557.374-.557-.174V73.482h0Z"/>
	<path fill="#C8CCD1" fill-rule="evenodd" stroke="#A2A9B1" d="M67.41 38.065h8.06c.038 0 .052-.001.093.002v-.002c.273 0 .5-.236.5-.537a.544.544 0 0 0-.217-.443l-.064-.056-8.024-8.317a.476.476 0 0 0-.534-.112.54.54 0 0 0-.315.499v8.43c0 .3.228.536.501.536Z" clip-rule="evenodd"/>
	<g opacity=".35">
		<path fill="#A2A9B1" d="M20.01 44.568c2.51 0 4.544-2.015 4.544-4.502 0-2.486-2.034-4.502-4.544-4.502s-4.543 2.016-4.543 4.502c0 2.486 2.034 4.502 4.543 4.502Z"/>
		<path fill="#A2A9B1" fill-rule="evenodd" d="M54.017 46.069s10.952 7.377 13.417 4.663c2.464-2.715 0 3.94 0 3.94H45.808M10.922 50.07s8.729 6.097 20.893 6.097c12.164 0 2.976 3.907 2.976 3.907H10.948" clip-rule="evenodd"/>
		<path fill="#C8CCD1" fill-rule="evenodd" d="M12.309 60.133s47.81-22.793 41.819-11.321c-5.99 11.472 21.457-2.694 21.457-2.694v14.015" clip-rule="evenodd"/>
	</g>
	<path fill="#F5F5F5" fill-rule="evenodd" d="M10.922 59.574H75.5v1H10.922v-1Z" clip-rule="evenodd"/>
	<path fill="#36C" d="M52.44 69.078H16.925a.5.5 0 0 0 0 1H52.44a.5.5 0 0 0 0-1Zm4.001 12.005H16.925a.5.5 0 0 0 0 1H56.44a.5.5 0 0 0 0-1Zm-24.51 27.011H16.925a.5.5 0 0 0 0 1.001H31.93a.5.5 0 1 0 0-1.001Zm38.016 0H34.432a.5.5 0 0 0 0 1.001h35.515a.5.5 0 1 0 0-1.001ZM24.428 88.086h-7.503a.5.5 0 0 0 0 1h7.503a.5.5 0 0 0 0-1Zm45.519 0h-7.503a.5.5 0 0 0 0 1h7.503a.5.5 0 0 0 0-1Zm-10.004 0H26.929a.5.5 0 0 0 0 1h33.014a.5.5 0 0 0 0-1Zm-35.515 16.507h-7.503a.5.5 0 1 0 0 1h7.503a.5.5 0 0 0 0-1Zm46.019 0H52.94a.5.5 0 1 0 0 1h17.507a.5.5 0 0 0 0-1Zm-20.008 0h-23.51a.5.5 0 1 0 0 1h23.51a.5.5 0 1 0 0-1Zm8.503-23.51h11.005a.5.5 0 0 1 0 1H58.942a.5.5 0 0 1 0-1ZM56.441 98.59H16.925a.5.5 0 0 0 0 1H56.44a.5.5 0 0 0 0-1Zm-6.503-21.008h-6.002a.5.5 0 1 0 0 1h6.002a.5.5 0 1 0 0-1Zm20.009 0H52.44a.5.5 0 1 0 0 1h17.507a.5.5 0 1 0 0-1Zm-28.512 0h-24.51a.5.5 0 1 0 0 1h24.51a.5.5 0 0 0 0-1ZM69.947 95.09H16.925a.5.5 0 1 0 0 1h53.022a.5.5 0 0 0 0-1Zm0-3.502H16.925a.5.5 0 1 0 0 1h53.022a.5.5 0 0 0 0-1Zm0 20.008H16.925a.5.5 0 1 0 0 1h53.022a.5.5 0 1 0 0-1Zm0-27.011H16.925a.5.5 0 1 0 0 1h53.022a.5.5 0 1 0 0-1ZM41.435 65.577h-24.51a.5.5 0 0 0 0 1h24.51a.5.5 0 0 0 0-1Zm179.895-6.53h-45.852a.646.646 0 1 0 0 1.292h45.852a.646.646 0 1 0 0-1.292Zm5.166 15.499h-51.018a.646.646 0 1 0 0 1.292h51.018a.646.646 0 1 0 0-1.292Zm-41.331 9.041h-9.687a.646.646 0 1 0 0 1.292h9.687a.646.646 0 1 0 0-1.292Zm58.768 0h-9.687a.646.646 0 1 0 0 1.292h9.687a.646.646 0 1 0 0-1.292Zm-12.916 0h-42.623a.646.646 0 1 0 0 1.292h42.623a.646.646 0 1 0 0-1.292Zm-45.852 21.312h-9.687a.646.646 0 1 0 0 1.291h9.687a.646.646 0 1 0 0-1.291Zm59.414 0h-22.603a.646.646 0 1 0 0 1.291h22.603a.645.645 0 0 0 0-1.291Zm-25.832 0h-30.353a.646.646 0 1 0 0 1.291h30.353a.646.646 0 0 0 0-1.291Zm10.978-30.353h14.208a.646.646 0 0 1 0 1.292h-14.208a.646.646 0 0 1 0-1.292Zm-3.229 22.604h-51.018a.646.646 0 1 0 0 1.29h51.018a.646.646 0 1 0 0-1.29Zm-8.395-27.125h-7.75a.646.646 0 0 0 0 1.292h7.75a.646.646 0 1 0 0-1.291Zm25.832 0H221.33a.646.646 0 1 0 0 1.292h22.603a.646.646 0 1 0 0-1.291Zm-36.811 0h-31.644a.646.646 0 1 0 0 1.292h31.644a.646.646 0 1 0 0-1.291Zm36.811 22.604h-68.455a.646.646 0 1 0 0 1.291h68.455a.646.646 0 1 0 0-1.291Zm0-4.521h-68.455a.646.646 0 1 0 0 1.292h68.455a.646.646 0 1 0 0-1.292Zm0-9.041h-68.455a.646.646 0 1 0 0 1.291h68.455a.646.646 0 1 0 0-1.291Zm-36.81-24.541h-31.645a.646.646 0 0 0 0 1.292h31.645a.646.646 0 0 0 0-1.292Zm-78.32 24.076a1 1 0 0 0 0-1.414l-6.364-6.364a1 1 0 1 0-1.414 1.414l5.656 5.657-5.656 5.657a1 1 0 1 0 1.414 1.414l6.364-6.364Zm-31.865.293h31.158v-2H96.938v2Z"/>
	<rect width="121.035" height="79.491" x="149.367" y="32.956" stroke="#A2A9B1" rx="3.5"/>
	<rect width="113.246" height="71.702" x="153.262" y="36.851" stroke="#A2A9B1" rx="3.5"/>
	<path stroke="#A2A9B1" d="M133.289 115.544c.563.865 2.703 2.596 6.758 2.596h141.084c1.126 0 3.774-.519 5.351-2.596"/>
	<rect width="153.491" height="2.895" x="132.49" y="112.149" stroke="#A2A9B1" rx=".5"/>
	<defs>
		<filter id="filter0_d" width="69.65" height="93.558" x="8.396" y="26.572" color-interpolation-filters="sRGB" filterUnits="userSpaceOnUse">
			<feFlood flood-opacity="0" result="BackgroundImageFix"/>
			<feColorMatrix in="SourceAlpha" values="0 0 0 0 0 0 0 0 0 0 0 0 0 0 0 0 0 0 127 0"/>
			<feOffset/>
			<feGaussianBlur stdDeviation=".995"/>
			<feColorMatrix values="0 0 0 0 0.961 0 0 0 0 0.961 0 0 0 0 0.961 0 0 0 1 0"/>
			<feBlend in2="BackgroundImageFix" result="effect1_dropShadow"/>
			<feBlend in="SourceGraphic" in2="effect1_dropShadow" result="shape"/>
		</filter>
	</defs>
</svg>
